src/components/SVG/facebook.svg

<svg width="18" height="18" viewBox="0 0 18 18" xmlns="http://www.w3.org/2000/svg" class="social-icon">
<path d="M3.28669 0C1.46601 0 0 1.46601 0 3.28669V14.7133C0 16.534 1.46601 18 3.28669 18H9.47983V10.9631H7.61908V8.42963H9.47983V6.26513C9.47983 4.56458 10.5792 3.00319 13.1119 3.00319C14.1373 3.00319 14.8956 3.10163 14.8956 3.10163L14.8359 5.46752C14.8359 5.46752 14.0626 5.46021 13.2187 5.46021C12.3054 5.46021 12.159 5.88101 12.159 6.57959V8.42965H14.9085L14.7887 10.9632H12.159V18H14.7133C16.534 18 18 16.534 18 14.7133V3.28671C18 1.46603 16.534 1.8e-05 14.7133 1.8e-05H3.28667L3.28669 0Z" />
</svg>

<svg width="18" height="18" xmlns="http://www.w3.org/2000/svg" class="social-icon"><path d="M3.287 0A3.28 3.28 0 000 3.287v11.426A3.28 3.28 0 003.287 18H9.48v-7.037H7.62V8.43h1.86V6.265c0-1.7 1.1-3.262 3.632-3.262 1.025 0 1.784.099 1.784.099l-.06 2.366s-.773-.008-1.617-.008c-.914 0-1.06.421-1.06 1.12v1.85h2.75l-.12 2.533h-2.63V18h2.554A3.28 3.28 0 0018 14.713V3.287A3.28 3.28 0 0014.713 0H3.287z"/></svg>
